packages/rainbowkit/src/wallets/walletConnectors/gateWallet/gateWallet.svg

<svg width="144" height="144" viewBox="0 0 144 144" fill="none" xmlns="http://www.w3.org/2000/svg">
<g clip-path="url(#clip0_1397_3687)">
<rect y="115.775" width="144" height="28.224" fill="#0255EB"/>
<path d="M71.9997 79.4099C66.2201 79.4099 60.6773 77.1146 56.5905 73.0291C52.5038 68.9435 50.2079 63.4023 50.2079 57.6244C50.2079 51.8465 52.5038 46.3053 56.5905 42.2197C60.6773 38.1342 66.2201 35.8389 71.9997 35.8389V18.0039C64.163 18.0039 56.5024 20.3271 49.9865 24.6796C43.4705 29.0321 38.392 35.2186 35.3931 42.4566C32.3941 49.6946 31.6095 57.6591 33.1383 65.3429C34.6672 73.0267 38.4409 80.0848 43.9822 85.6245C49.5235 91.1642 56.5836 94.9368 64.2696 96.4652C71.9557 97.9936 79.9225 97.2092 87.1626 94.2111C94.4027 91.2131 100.591 86.136 104.945 79.622C109.299 73.1079 111.622 65.4495 111.622 57.6151H93.7729C93.7766 60.476 93.2161 63.3094 92.1235 65.9535C91.0309 68.5976 89.4277 71.0005 87.4055 73.0247C85.3833 75.0489 82.9818 76.6547 80.3384 77.7503C77.6949 78.846 74.8613 79.4099 71.9997 79.4099Z" fill="#0255EB"/>
<path d="M93.7918 35.8281H72V57.6136H93.7918V35.8281Z" fill="#00E697"/>
<path d="M143.982 112.496C122.378 107.314 97.93 104.387 71.9907 104.387C46.0515 104.387 21.6037 107.314 0 112.496V115.738C0 123.231 2.97687 130.416 8.27577 135.714C13.5747 141.012 20.7615 143.989 28.2553 143.989H115.745C123.238 143.989 130.425 141.012 135.724 135.714C141.023 130.416 144 123.231 144 115.738L143.982 112.496Z" fill="url(#paint0_linear_1397_3687)"/>
<path d="M143.982 115.753C122.54 110.344 98.0319 107.273 71.9907 107.273C45.9496 107.273 21.4416 110.344 0 115.753C0 123.246 2.97687 130.432 8.27577 135.73C13.5747 141.028 20.7615 144.004 28.2553 144.004H115.745C123.238 144.004 130.425 141.028 135.724 135.73C141.023 130.432 144 123.246 144 115.753H143.982Z" fill="#0255EB"/>
<path d="M56.4529 132.612H52.6495L49.6847 119.431L46.6596 132.612H42.8562L39.5068 117.486H42.1196L44.8019 130.195L47.8039 117.486H51.5887L54.5072 130.148L57.1756 117.486H59.8347L56.4529 132.612Z" fill="white"/>
<path d="M72.0558 121.141V132.594H69.5727V131.057C69.1087 131.591 68.5373 132.022 67.8957 132.321C67.2368 132.631 66.5164 132.79 65.7879 132.784C64.7877 132.789 63.8065 132.511 62.9574 131.983C61.6434 131.158 60.6959 129.86 60.3098 128.358C59.9238 126.855 60.1285 125.262 60.882 123.906C61.3696 123.022 62.0804 122.281 62.9435 121.757C63.7943 121.234 64.775 120.959 65.774 120.965C66.5025 120.959 67.2229 121.118 67.8818 121.428C68.5193 121.724 69.0899 122.146 69.5588 122.669V121.136L72.0558 121.141ZM67.8865 130.033C68.4324 129.715 68.8859 129.26 69.2021 128.713C69.5154 128.165 69.6754 127.543 69.6654 126.912C69.6709 126.432 69.5809 125.956 69.4007 125.512C69.2204 125.068 68.9535 124.664 68.6154 124.324C68.2773 123.983 67.8749 123.714 67.4316 123.531C66.9883 123.348 66.513 123.255 66.0334 123.257C65.3997 123.253 64.7768 123.421 64.2313 123.744C63.6813 124.061 63.2232 124.516 62.9018 125.064C62.5703 125.614 62.3986 126.246 62.4061 126.888C62.4046 127.524 62.5704 128.15 62.8866 128.702C63.2029 129.253 63.6586 129.713 64.2082 130.033C64.7646 130.351 65.3946 130.519 66.0357 130.519C66.6769 130.519 67.3069 130.351 67.8633 130.033H67.8865Z" fill="white"/>
<path d="M74.4561 132.612V117.486H76.9438V132.612H74.4561Z" fill="white"/>
<path d="M79.3203 132.612V117.486H81.808V132.612H79.3203Z" fill="white"/>
<path d="M92.6755 121.756C93.5713 122.271 94.3151 123.013 94.8317 123.908C95.3483 124.802 95.6192 125.818 95.6172 126.85C95.6146 127.16 95.593 127.47 95.5524 127.777H86.2594C86.3528 128.296 86.5583 128.789 86.8616 129.222C87.1993 129.66 87.638 130.009 88.1402 130.241C88.638 130.454 89.1738 130.564 89.7153 130.565C90.358 130.562 90.9916 130.413 91.5683 130.129C92.0859 129.899 92.5485 129.561 92.9257 129.138L95.1123 129.74C94.6272 130.672 93.8625 131.428 92.9257 131.903C91.9382 132.468 90.8207 132.767 89.6829 132.769C88.6418 132.775 87.6186 132.498 86.7227 131.968C85.8274 131.447 85.0834 130.701 84.5638 129.805C84.0392 128.907 83.7627 127.886 83.7627 126.846C83.7627 125.806 84.0392 124.785 84.5638 123.886C85.0814 122.992 85.8261 122.251 86.7227 121.738C87.6228 121.219 88.6437 120.945 89.6829 120.945C90.722 120.945 91.7429 121.219 92.6431 121.738L92.6755 121.756ZM88.2143 123.581C87.7423 123.798 87.3222 124.114 86.9821 124.507C86.649 124.9 86.4154 125.367 86.3011 125.869H93.199C93.0703 125.367 92.8295 124.902 92.4949 124.507C92.1576 124.117 91.7427 123.801 91.2765 123.581C90.7985 123.352 90.2753 123.234 89.7454 123.234C89.2155 123.234 88.6924 123.352 88.2143 123.581Z" fill="white"/>
<path d="M98.772 118.418H101.213V121.16H104.739V123.346H101.213V128.704C101.21 129.008 101.293 129.307 101.454 129.565C101.611 129.824 101.829 130.04 102.089 130.195C102.354 130.352 102.657 130.433 102.965 130.431H104.845V132.613H102.446C101.794 132.623 101.152 132.451 100.593 132.117C100.035 131.791 99.5714 131.325 99.2492 130.765C98.9205 130.203 98.7492 129.563 98.7535 128.912V123.355H96.5947V121.169H98.7535L98.772 118.418Z" fill="white"/>
</g>
<defs>
<linearGradient id="paint0_linear_1397_3687" x1="-97.6799" y1="124.19" x2="247.975" y2="124.19" gradientUnits="userSpaceOnUse">
<stop offset="0.25" stop-color="white"/>
<stop offset="0.5" stop-color="#00E79D"/>
<stop offset="0.75" stop-color="white"/>
</linearGradient>
<clipPath id="clip0_1397_3687">
<rect width="144" height="144" fill="white"/>
</clipPath>
</defs>
</svg>

<svg width="144" height="144" viewBox="0 0 144 144" fill="none" xmlns="http://www.w3.org/2000/svg"><g clip-path="url(#clip0_1397_3687)"><path fill="#0255EB" d="M0 115.775h144v28.224H0zM72 79.41a21.795 21.795 0 0 1-15.41-6.38A21.783 21.783 0 0 1 72 35.838V18.004a39.631 39.631 0 0 0-22.014 6.676 39.613 39.613 0 0 0-16.848 40.663 39.608 39.608 0 0 0 10.844 20.281 39.626 39.626 0 0 0 43.18 8.587 39.622 39.622 0 0 0 17.783-14.589 39.601 39.601 0 0 0 6.677-22.007h-17.85a21.76 21.76 0 0 1-6.367 15.41A21.773 21.773 0 0 1 72 79.41z"/><path d="M93.792 35.828H72v21.786h21.792V35.828z" fill="#00E697"/><path d="M143.982 112.496c-21.604-5.182-46.052-8.109-71.991-8.109-25.94 0-50.387 2.927-71.991 8.109v3.242a28.247 28.247 0 0 0 8.276 19.976 28.258 28.258 0 0 0 19.98 8.275h87.489c7.493 0 14.68-2.977 19.979-8.275A28.247 28.247 0 0 0 144 115.738l-.018-3.242z" fill="url(#paint0_linear_1397_3687)"/><path d="M143.982 115.753c-21.442-5.409-45.95-8.48-71.991-8.48-26.041 0-50.55 3.071-71.991 8.48a28.25 28.25 0 0 0 28.255 28.251h87.49A28.249 28.249 0 0 0 144 115.753h-.018z" fill="#0255EB"/><path d="M56.453 132.612H52.65l-2.965-13.181-3.025 13.181h-3.804l-3.35-15.126h2.614l2.682 12.709 3.002-12.709h3.785l2.918 12.662 2.669-12.662h2.659l-3.382 15.126zM72.056 121.141v11.453h-2.483v-1.537a5.046 5.046 0 0 1-1.677 1.264c-.66.31-1.38.469-2.108.463a5.31 5.31 0 0 1-2.83-.801 6.063 6.063 0 0 1-2.076-8.077 5.78 5.78 0 0 1 2.062-2.149 5.345 5.345 0 0 1 2.83-.792 4.858 4.858 0 0 1 2.108.463 5.184 5.184 0 0 1 1.677 1.241v-1.533l2.497.005zm-4.17 8.892a3.63 3.63 0 0 0 1.316-1.32c.313-.548.473-1.17.463-1.801a3.613 3.613 0 0 0-3.632-3.655 3.493 3.493 0 0 0-1.802.487 3.661 3.661 0 0 0-1.33 1.32 3.456 3.456 0 0 0-.495 1.824 3.634 3.634 0 0 0 1.802 3.145 3.684 3.684 0 0 0 3.655 0h.023zM74.456 132.612v-15.126h2.488v15.126h-2.488zM79.32 132.612v-15.126h2.488v15.126H79.32zM92.675 121.756a5.863 5.863 0 0 1 2.942 5.094c-.002.31-.024.62-.065.927H86.26c.094.519.3 1.012.603 1.445a3.43 3.43 0 0 0 1.278 1.019 4.023 4.023 0 0 0 1.575.324 4.239 4.239 0 0 0 1.853-.436 3.99 3.99 0 0 0 1.358-.991l2.186.602a5.028 5.028 0 0 1-2.186 2.163 6.554 6.554 0 0 1-3.243.866 5.75 5.75 0 0 1-2.96-.801 5.964 5.964 0 0 1-2.16-2.163 5.866 5.866 0 0 1 0-5.919 5.854 5.854 0 0 1 2.16-2.148 5.927 5.927 0 0 1 5.92 0l.032.018zm-4.46 1.825a3.642 3.642 0 0 0-1.233.926c-.333.393-.567.86-.68 1.362h6.897a3.42 3.42 0 0 0-.704-1.362 3.7 3.7 0 0 0-1.219-.926 3.543 3.543 0 0 0-3.062 0zM98.772 118.418h2.441v2.742h3.526v2.186h-3.526v5.358c-.003.304.08.603.241.861.157.259.375.475.635.63.265.157.568.238.876.236h1.88v2.182h-2.399a3.509 3.509 0 0 1-1.853-.496 3.708 3.708 0 0 1-1.344-1.352 3.623 3.623 0 0 1-.495-1.853v-5.557h-2.16v-2.186h2.16l.018-2.751z" fill="#fff"/></g><defs><linearGradient id="paint0_linear_1397_3687" x1="-97.68" y1="124.19" x2="247.975" y2="124.19" gradientUnits="userSpaceOnUse"><stop offset=".25" stop-color="#fff"/><stop offset=".5" stop-color="#00E79D"/><stop offset=".75" stop-color="#fff"/></linearGradient><clipPath id="clip0_1397_3687"><path fill="#fff" d="M0 0h144v144H0z"/></clipPath></defs></svg>
